packages/foundations/assets/icons/functional/images/transportation/pedestrian.svg

<svg xmlns="http://www.w3.org/2000/svg" width="32" height="32" fill="none"><path fill="#1A1C1F" fill-rule="evenodd" d="M15.653 2.103c-.889.25-1.554.797-1.949 1.602-.17.346-.315.937-.315 1.282 0 .358.147.936.346 1.354.22.464.786 1.059 1.235 1.3.361.194 1.019.359 1.425.358 1.859-.004 3.322-1.78 2.944-3.572-.101-.481-.378-1.057-.669-1.394-.274-.316-.848-.707-1.257-.856-.407-.148-1.355-.188-1.76-.074m1.276 2.078c.478.281.631.933.322 1.377-.283.407-.762.563-1.185.386-.569-.237-.787-.872-.486-1.417.253-.459.881-.62 1.349-.346m-1.746 5.5c-.362.091-4.626 2.262-4.849 2.469-.08.074-.181.233-.225.352-.044.12-.191.96-.327 1.867-.211 1.412-.238 1.679-.185 1.854.071.238.326.548.542.66.175.09.564.101.778.02.19-.072.472-.342.546-.523.031-.077.153-.739.271-1.47.118-.732.226-1.341.239-1.354a70 70 0 0 1 1.345-.763c1.072-.6 1.325-.722 1.337-.646.009.052-.119 1.413-.283 3.027a156 156 0 0 0-.304 3.173c-.012.522-.008.527 2.075 2.618l1.945 1.952.814 3.248c.447 1.787.842 3.301.876 3.366.1.186.389.378.662.439.531.119 1.095-.255 1.185-.785.028-.165-.135-.902-.8-3.616-.46-1.874-.872-3.48-.915-3.569s-.92-1.002-1.946-2.031l-1.865-1.87.355-3.673c.199-2.064.339-3.756.32-3.863-.136-.756-.747-1.095-1.591-.882m3.084 2.214c-.598.126-.912.651-.739 1.235.065.221.181.37.69.895l.612.63 1.212.629c1.094.569 1.243.632 1.543.652.284.02.365.003.566-.114.558-.328.665-1.019.233-1.513-.128-.147-.434-.324-1.237-.716l-1.067-.521-.507-.513c-.278-.282-.554-.54-.613-.572-.151-.085-.505-.131-.693-.092m-5.125 8.95a1 1 0 0 0-.323.237c-.161.204-3.425 7.571-3.464 7.82-.028.173-.006.275.109.511.268.547.867.736 1.38.435.129-.075.27-.192.314-.259s.833-1.814 1.754-3.882c1.437-3.227 1.674-3.795 1.671-4.006-.005-.294-.136-.537-.41-.759-.261-.21-.7-.252-1.031-.097"/></svg>

<svg width="32" height="32" viewBox="0 0 32 32" fill="none" xmlns="http://www.w3.org/2000/svg"><path d="M15.653 2.103 C 14.764 2.353,14.099 2.900,13.704 3.705 C 13.534 4.051,13.389 4.642,13.389 4.987 C 13.389 5.345,13.536 5.923,13.735 6.341 C 13.955 6.805,14.521 7.400,14.970 7.641 C 15.331 7.835,15.989 8.000,16.395 7.999 C 18.254 7.995,19.717 6.219,19.339 4.427 C 19.238 3.946,18.961 3.370,18.670 3.033 C 18.396 2.717,17.822 2.326,17.413 2.177 C 17.006 2.029,16.058 1.989,15.653 2.103 M16.929 4.181 C 17.407 4.462,17.560 5.114,17.251 5.558 C 16.968 5.965,16.489 6.121,16.066 5.944 C 15.497 5.707,15.279 5.072,15.580 4.527 C 15.833 4.068,16.461 3.907,16.929 4.181 M15.183 9.681 C 14.821 9.772,10.557 11.943,10.334 12.150 C 10.254 12.224,10.153 12.383,10.109 12.502 C 10.065 12.622,9.918 13.462,9.782 14.369 C 9.571 15.781,9.544 16.048,9.597 16.223 C 9.668 16.461,9.923 16.771,10.139 16.883 C 10.314 16.973,10.703 16.984,10.917 16.903 C 11.107 16.831,11.389 16.561,11.463 16.380 C 11.494 16.303,11.616 15.641,11.734 14.910 C 11.852 14.178,11.960 13.569,11.973 13.556 C 11.986 13.543,12.591 13.200,13.318 12.793 C 14.390 12.193,14.643 12.071,14.655 12.147 C 14.664 12.199,14.536 13.560,14.372 15.174 C 14.208 16.787,14.071 18.215,14.068 18.347 C 14.056 18.869,14.060 18.874,16.143 20.965 L 18.088 22.917 18.902 26.165 C 19.349 27.952,19.744 29.466,19.778 29.531 C 19.878 29.717,20.167 29.909,20.440 29.970 C 20.971 30.089,21.535 29.715,21.625 29.185 C 21.653 29.020,21.490 28.283,20.825 25.569 C 20.365 23.695,19.953 22.089,19.910 22.000 C 19.866 21.912,18.990 20.998,17.964 19.969 L 16.099 18.099 16.454 14.426 C 16.653 12.362,16.793 10.670,16.774 10.563 C 16.638 9.807,16.027 9.468,15.183 9.681 M18.267 11.895 C 17.669 12.021,17.355 12.546,17.528 13.130 C 17.593 13.351,17.709 13.500,18.218 14.025 L 18.830 14.655 20.042 15.284 C 21.136 15.853,21.285 15.916,21.585 15.936 C 21.869 15.956,21.950 15.939,22.151 15.822 C 22.709 15.494,22.816 14.803,22.384 14.309 C 22.256 14.162,21.950 13.985,21.147 13.593 L 20.080 13.072 19.573 12.559 C 19.295 12.277,19.019 12.019,18.960 11.987 C 18.809 11.902,18.455 11.856,18.267 11.895 M13.142 20.845 C 13.023 20.901,12.877 21.007,12.819 21.082 C 12.658 21.286,9.394 28.653,9.355 28.902 C 9.327 29.075,9.349 29.177,9.464 29.413 C 9.732 29.960,10.331 30.149,10.844 29.848 C 10.973 29.773,11.114 29.656,11.158 29.589 C 11.202 29.522,11.991 27.775,12.912 25.707 C 14.349 22.480,14.586 21.912,14.583 21.701 C 14.578 21.407,14.447 21.164,14.173 20.942 C 13.912 20.732,13.473 20.690,13.142 20.845 " fill="#1A1C1F" stroke="none" fill-rule="evenodd"></path></svg>
